packages/match-logos/mono/svg/moneypenny.svg

<svg width="152" height="31" viewBox="0 0 152 31" fill="none" xmlns="http://www.w3.org/2000/svg">
<path fill-rule="evenodd" clip-rule="evenodd" d="M98.0799 20.2601C97.6009 20.2601 97.2799 20.4201 96.7999 20.4201C96.1869 20.3851 95.5819 20.2671 94.9999 20.0701V12.7001C95.9589 12.3331 97.0079 12.2771 97.9999 12.5401C99.4839 12.8171 100.663 13.9481 101 15.4201C101.571 17.4741 100.369 19.6021 98.3139 20.1731C98.2369 20.1941 98.1589 20.2131 98.0799 20.2301V20.2601ZM98.0799 10.0001C97.6569 9.92009 97.2229 9.92009 96.7999 10.0001C96.1969 9.96009 95.5919 10.0041 94.9999 10.1301H92.3099V29.0001H94.9999V22.7901C95.5859 22.9501 96.1929 23.0211 96.7999 23.0001C97.2329 23.0261 97.6669 22.9711 98.0799 22.8401C101.284 22.3481 103.697 19.6671 103.851 16.4301C103.817 13.1401 101.347 10.3871 98.0799 10.0001Z" fill="#1F304C"/>
<mask id="mask0" mask-type="alpha" maskUnits="userSpaceOnUse" x="139" y="10" width="13" height="19">
<path d="M139.419 10.0597H151.28V28.9997H139.419V10.0597Z" fill="white"/>
</mask>
<g mask="url(#mask0)">
<path fill-rule="evenodd" clip-rule="evenodd" d="M148.56 10.1297L145.509 19.1297L142.15 10.1297H139.419V10.6097L144.23 22.7897L143.91 24.0697C143.273 25.5397 141.821 26.4877 140.219 26.4797V28.9997C143.223 28.9247 145.826 26.8957 146.629 23.9997L151.28 10.0597L148.56 10.1297Z" fill="#1F304C"/>
</g>
<path fill-rule="evenodd" clip-rule="evenodd" d="M110.9 14.9398H107.53C107.846 13.4028 109.171 12.2798 110.74 12.2198H110.9C112.456 12.3908 113.768 13.4538 114.259 14.9398H110.9ZM110.9 9.8098H110.74C107.207 9.9138 104.417 12.8458 104.49 16.3798C104.33 19.8728 107.031 22.8338 110.523 22.9938C110.595 22.9968 110.668 22.9988 110.74 22.9998H110.9C112.82 22.9998 115.07 22.6798 116.19 21.2398L114.259 19.4798C113.62 20.4798 112.02 20.4798 110.9 20.4798H110.74C108.98 20.4798 107.86 19.1998 107.53 17.4298H116.83V16.2198C116.81 12.8708 114.238 10.0888 110.9 9.8098Z" fill="#1F304C"/>
<path fill-rule="evenodd" clip-rule="evenodd" d="M139.26 22.3099H139.42V14.1399C139.447 13.7599 139.392 13.3779 139.26 13.0199V22.3099Z" fill="#1F304C"/>
<path fill-rule="evenodd" clip-rule="evenodd" d="M131.73 10.6097V9.9997H129V22.3097H131.72V14.1397C131.72 13.1397 133 12.3797 134.28 12.3797C135.56 12.3797 136.69 13.1797 136.69 14.1397V22.3097H139.25V12.9997C139.015 12.3627 138.677 11.7677 138.25 11.2397C136.86 9.4897 133 9.6497 131.73 10.6097Z" fill="#1F304C"/>
<path fill-rule="evenodd" clip-rule="evenodd" d="M139.1 10.1297L139.259 10.6097V10.1297H139.1Z" fill="#1F304C"/>
<path fill-rule="evenodd" clip-rule="evenodd" d="M120.35 10.6097V9.9997H117.629V22.3097H120.35V14.1397C120.35 13.1397 121.799 12.3797 122.919 12.3797C124.039 12.3797 125.32 13.1797 125.32 14.1397V22.3097H128.049V14.1397C128.033 13.0437 127.566 12.0027 126.759 11.2597C125.64 9.4897 121.799 9.6497 120.35 10.6097Z" fill="#1F304C"/>
<path fill-rule="evenodd" clip-rule="evenodd" d="M49.3699 20.39H49.0499C46.9129 20.385 45.1829 18.649 45.1879 16.512C45.1879 16.414 45.1919 16.317 45.1999 16.22C45.2099 14.082 46.9509 12.358 49.0889 12.3689C49.1829 12.3689 49.2759 12.372 49.3699 12.38C51.3189 12.567 52.8629 14.11 53.0499 16.06C53.3009 18.188 51.7789 20.117 49.6499 20.367C49.5569 20.378 49.4639 20.386 49.3699 20.39ZM49.3699 9.81C45.7479 9.827 42.8159 12.758 42.7999 16.38C42.7279 19.964 45.5749 22.927 49.1579 22.999C49.2279 23 49.2999 23.001 49.3699 23C52.9989 23 55.9399 20.058 55.9399 16.43C55.9399 12.802 52.9989 9.86 49.3699 9.86V9.81Z" fill="#1F304C"/>
<path fill-rule="evenodd" clip-rule="evenodd" d="M85.74 19.1097L82.38 10.1097H80V11.3997L84.49 22.7697L84 24.0697C83.387 25.4867 82.013 26.4247 80.47 26.4797V28.9997C83.474 28.9247 86.076 26.8957 86.88 23.9997L91.51 10.1297H88.63L85.74 19.1097Z" fill="#1F304C"/>
<path fill-rule="evenodd" clip-rule="evenodd" d="M59.6199 10.6097V9.9997H56.8999V22.3097H59.6199V14.1397C59.6199 13.1397 60.8999 12.3797 62.3499 12.3797C63.6299 12.3797 64.7499 13.1797 64.7499 14.1397V22.3097H67.4709V14.1397C67.4559 13.0457 66.9929 12.0047 66.1899 11.2597C64.7499 9.4897 61.0699 9.6497 59.6199 10.6097Z" fill="#1F304C"/>
<path fill-rule="evenodd" clip-rule="evenodd" d="M37.1902 9.8099C35.6022 9.6159 34.0112 10.1489 32.8602 11.2599C31.4192 9.3299 27.8602 9.3299 25.8602 10.4499C24.6332 11.0889 23.7962 12.2879 23.6202 13.6599V22.3099H26.3392V14.1399C26.3392 13.1399 27.6292 12.3799 29.0702 12.3799C30.3502 12.3799 31.4702 13.1799 31.4702 14.1399V22.3099H34.2002V14.1399C34.2002 13.1399 35.6402 12.3799 36.9192 12.3799C38.0402 12.3799 39.3202 13.1799 39.3202 14.1399V22.3099H42.0002V14.1399C41.6722 11.7139 39.6372 9.8809 37.1902 9.8099Z" fill="#1F304C"/>
<path fill-rule="evenodd" clip-rule="evenodd" d="M79.49 10.1297L79.97 11.4197V10.1297H79.49Z" fill="#1F304C"/>
<path fill-rule="evenodd" clip-rule="evenodd" d="M19.0799 8.5301C18.3009 7.4361 18.4359 5.9361 19.3999 5.0001C20.5629 3.8761 22.4069 3.8761 23.5699 5.0001C24.1339 5.6041 24.4239 6.4151 24.3699 7.2401C24.6589 7.6891 25.0409 8.0711 25.4899 8.3601H24.8509C22.1299 8.5201 20.8509 11.4101 20.8509 12.3601C20.4169 11.0101 19.8229 9.7171 19.0799 8.5101" fill="#1F304C"/>
<mask id="mask1" mask-type="alpha" maskUnits="userSpaceOnUse" x="0" y="1" width="26" height="29">
<path d="M0 1H25.3299V29.1499H0V1Z" fill="white"/>
</mask>
<g mask="url(#mask1)">
<path fill-rule="evenodd" clip-rule="evenodd" d="M25.3299 8.37C24.9149 8.109 24.5549 7.769 24.2699 7.37L24.3699 7.13C24.3419 6.949 24.2949 6.771 24.2299 6.6C24.1309 5.918 23.9629 5.248 23.7299 4.6C22.6099 1.6 18.9199 0.91 16.3599 2.51C15.0319 3.377 14.3429 4.946 14.6009 6.51C12.9229 6.627 11.2369 6.493 9.60088 6.11C6.12488 5.107 2.90788 3.364 0.169878 1L0.229878 1.17L-0.00012207 1C0.0178779 1.25 0.0608779 1.498 0.129878 1.74C-0.279122 5.74 0.329878 8.59 1.39088 10.48L1.14088 10.29C1.19088 10.422 1.25488 10.55 1.32988 10.67C1.15188 10.555 0.980878 10.428 0.819878 10.29C1.22588 11.215 1.86788 12.018 2.68088 12.62C3.36988 15.09 5.20988 15.77 6.85988 16.77L5.77988 17C8.66988 19.32 11.8509 19.6 14.3799 19.91C12.9389 21.782 11.1019 23.312 8.99988 24.39C9.39088 24.51 9.73988 24.6 10.0599 24.67L9.15988 25.04C10.0429 25.991 11.2259 26.608 12.5099 26.79C12.3089 26.917 12.0989 27.027 11.8799 27.12C12.5449 27.536 13.2989 27.789 14.0799 27.86L13.9599 27.92C15.1899 28.98 16.0399 28.92 16.7699 28.67H16.6899C16.9929 28.96 17.3909 29.131 17.8099 29.15C19.0899 29.15 20.8599 28.15 21.0199 27.23V12.38C21.0169 12.183 20.9999 11.985 20.9709 11.79C21.3749 10.404 22.3339 9.246 23.6199 8.59C23.9669 8.463 24.3309 8.389 24.6999 8.37H25.3299Z" fill="#1F304C"/>
</g>
<path fill-rule="evenodd" clip-rule="evenodd" d="M22.4499 6.1297C22.2209 6.0937 22.0059 6.2507 21.9709 6.4797C21.9639 6.5227 21.9639 6.5667 21.9709 6.6097C21.9709 6.8857 22.1939 7.1097 22.4709 7.1097C22.7459 7.1097 22.9709 6.8857 22.9709 6.6097C22.9549 6.3517 22.7489 6.1447 22.4899 6.1297" fill="#1F304C"/>
<path fill-rule="evenodd" clip-rule="evenodd" d="M74.53 14.9398H71.16C71.469 13.3988 72.799 12.2728 74.37 12.2198H74.53C76.086 12.3908 77.398 13.4538 77.89 14.9398H74.53ZM74.53 9.8098H74.37C70.837 9.9138 68.047 12.8458 68.12 16.3798C67.96 19.8728 70.661 22.8338 74.153 22.9938C74.225 22.9968 74.298 22.9988 74.37 22.9998H74.53C76.45 22.9998 78.69 22.6798 79.81 21.2398L77.89 19.4798C77.25 20.4798 75.81 20.4798 74.53 20.4798H74.37C72.6 20.4798 71.48 19.1998 71.16 17.4298H80.45V16.2198C80.495 12.8488 77.893 10.0328 74.53 9.8098Z" fill="#1F304C"/>
</svg>

<svg fill="none" height="31" viewBox="0 0 152 31" width="152" xmlns="http://www.w3.org/2000/svg" xmlns:xlink="http://www.w3.org/1999/xlink"><mask id="a" height="29" maskUnits="userSpaceOnUse" width="26" x="0" y="1"><path d="m0 1h25.3299v28.1499h-25.3299z" fill="#fff"/></mask><g clip-rule="evenodd" fill="#1f304c" fill-rule="evenodd"><path d="m98.0799 20.2601c-.479 0-.8.16-1.28.16-.613-.035-1.218-.153-1.8-.35v-7.37c.959-.367 2.008-.423 3-.16 1.484.277 2.6631 1.408 3.0001 2.88.571 2.054-.631 4.182-2.6861 4.753-.077.021-.155.04-.234.057zm0-10.26c-.423-.08001-.857-.08001-1.28 0-.603-.04001-1.208.004-1.8.13h-2.69v18.87h2.69v-6.21c.586.16 1.193.231 1.8.21.433.026.867-.029 1.28-.16 3.2041-.492 5.6171-3.173 5.7711-6.41-.034-3.29-2.504-6.043-5.7711-6.43z"/><path d="m148.56 10.1297-3.051 9-3.359-9h-2.731v.48l4.811 12.18-.32 1.28c-.637 1.47-2.089 2.418-3.691 2.41v2.52c3.004-.075 5.607-2.104 6.41-5l4.651-13.94z"/><path d="m110.9 14.9398h-3.37c.316-1.537 1.641-2.66 3.21-2.72h.16c1.556.171 2.868 1.234 3.359 2.72zm0-5.13h-.16c-3.533.104-6.323 3.036-6.25 6.57-.16 3.493 2.541 6.454 6.033 6.614.072.003.145.005.217.006h.16c1.92 0 4.17-.32 5.29-1.76l-1.931-1.76c-.639 1-2.239 1-3.359 1h-.16c-1.76 0-2.88-1.28-3.21-3.05h9.3v-1.21c-.02-3.349-2.592-6.131-5.93-6.41z"/><path d="m139.26 22.3099h.16v-8.17c.027-.38-.028-.762-.16-1.12z"/><path d="m131.73 10.6097v-.61h-2.73v12.31h2.72v-8.17c0-1 1.28-1.76 2.56-1.76s2.41.8 2.41 1.76v8.17h2.56v-9.31c-.235-.637-.573-1.232-1-1.76-1.39-1.75-5.25-1.59-6.52-.63z"/><path d="m139.1 10.1297.159.48v-.48z"/><path d="m120.35 10.6097v-.61h-2.721v12.31h2.721v-8.17c0-1 1.449-1.76 2.569-1.76s2.401.8 2.401 1.76v8.17h2.729v-8.17c-.016-1.096-.483-2.137-1.29-2.88-1.119-1.77-4.96-1.61-6.409-.65z"/><path d="m49.3699 20.39h-.32c-2.137-.005-3.867-1.741-3.862-3.878 0-.098.004-.195.012-.292.01-2.138 1.751-3.862 3.889-3.8511.094 0 .187.0031.281.0111 1.949.187 3.493 1.73 3.68 3.68.251 2.128-1.271 4.057-3.4 4.307-.093.011-.186.019-.28.023zm0-10.58c-3.622.017-6.554 2.948-6.57 6.57-.072 3.584 2.775 6.547 6.358 6.619.07.001.142.002.212.001 3.629 0 6.57-2.942 6.57-6.57s-2.941-6.57-6.57-6.57z"/><path d="m85.74 19.1097-3.36-9h-2.38v1.29l4.49 11.37-.49 1.3c-.613 1.417-1.987 2.355-3.53 2.41v2.52c3.004-.075 5.606-2.104 6.41-5l4.63-13.87h-2.88z"/><path d="m59.6199 10.6097v-.61h-2.72v12.31h2.72v-8.17c0-1 1.28-1.76 2.73-1.76 1.28 0 2.4.8 2.4 1.76v8.17h2.721v-8.17c-.015-1.094-.478-2.135-1.281-2.88-1.44-1.77-5.12-1.61-6.57-.65z"/><path d="m37.1902 9.8099c-1.588-.194-3.179.339-4.33 1.45-1.441-1.93-5-1.93-7-.81-1.227.639-2.064 1.838-2.24 3.21v8.65h2.719v-8.17c0-1 1.29-1.76 2.731-1.76 1.28 0 2.4.8 2.4 1.76v8.17h2.73v-8.17c0-1 1.44-1.76 2.719-1.76 1.121 0 2.401.8 2.401 1.76v8.17h2.68v-8.17c-.328-2.426-2.363-4.259-4.81-4.33z"/><path d="m79.49 10.1297.48 1.29v-1.29z"/><path d="m19.0799 8.5301c-.779-1.094-.644-2.594.32-3.53 1.163-1.124 3.007-1.124 4.17 0 .564.604.854 1.415.8 2.24.289.449.671.831 1.12 1.12h-.639c-2.721.16-4 3.05-4 4-.434-1.35-1.028-2.643-1.771-3.85"/></g><g mask="url(#a)"><path clip-rule="evenodd" d="m25.3299 8.37c-.415-.261-.775-.601-1.06-1l.1-.24c-.028-.181-.075-.359-.14-.53-.099-.682-.267-1.352-.5-2-1.12-3-4.81-3.69-7.37-2.09-1.328.867-2.017 2.436-1.759 4-1.678.117-3.364-.017-5.00002-.4-3.476-1.003-6.693-2.746-9.431002-5.11l.06.17-.23000007-.17c.01799997.25.06099997.498.13000007.74-.409 4 .2 6.85 1.261002 8.74l-.25-.19c.05.132.114.26.189.38-.178-.115-.349002-.242-.510002-.38.406002.925 1.048002 1.728 1.861002 2.33.689 2.47 2.529 3.15 4.179 4.15l-1.08.23c2.89 2.32 6.07102 2.6 8.60002 2.91-1.441 1.872-3.278 3.402-5.38002 4.48.391.12.74.21 1.06002.28l-.90002.37c.88302.951 2.06602 1.568 3.35002 1.75-.201.127-.411.237-.63.33.665.416 1.419.669 2.2.74l-.12.06c1.23 1.06 2.08 1 2.81.75h-.08c.303.29.701.461 1.12.48 1.28 0 3.05-1 3.21-1.92v-14.85c-.003-.197-.02-.395-.049-.59.404-1.386 1.363-2.544 2.649-3.2.347-.127.711-.201 1.08-.22z" fill="#1f304c" fill-rule="evenodd"/></g><path clip-rule="evenodd" d="m22.4499 6.1297c-.229-.036-.444.121-.479.35-.007.043-.007.087 0 .13 0 .276.223.5.5.5.275 0 .5-.224.5-.5-.016-.258-.222-.465-.481-.48" fill="#1f304c" fill-rule="evenodd"/><path clip-rule="evenodd" d="m74.53 14.9398h-3.37c.309-1.541 1.639-2.667 3.21-2.72h.16c1.556.171 2.868 1.234 3.36 2.72zm0-5.13h-.16c-3.533.104-6.323 3.036-6.25 6.57-.16 3.493 2.541 6.454 6.033 6.614.072.003.145.005.217.006h.16c1.92 0 4.16-.32 5.28-1.76l-1.92-1.76c-.64 1-2.08 1-3.36 1h-.16c-1.77 0-2.89-1.28-3.21-3.05h9.29v-1.21c.045-3.371-2.557-6.187-5.92-6.41z" fill="#1f304c" fill-rule="evenodd"/></svg>
